!!!COM:	Bach, Johann Sebastian
!!!CDT:	1685/02/21/-1750/07/28/
!!!OTL@@DE:	Du gro&szlig;er Schmerzensmann
!!!SCT:	BWV 300
!!!PC#:	167
!!!AGN:	chorale
**kern	**kern	**kern	**kern
*ICvox	*ICvox	*ICvox	*ICvox
*Ibass	*Itenor	*Ialto	*Isoprn
*I"Bass	*I"Tenor	*I"Alto	*I"Soprano
*clefF4	*clefGv2	*clefG2	*clefG2
*k[f#]	*k[f#]	*k[f#]	*k[f#]
*e:	*e:	*e:	*e:
*M4/4	*M4/4	*M4/4	*M4/4
*met(c)	*met(c)	*met(c)	*met(c)
*MM100	*MM100	*MM100	*MM100
4E	4B	4e	4g
=1	=1	=1	=1
4BB	8BL	4d	4g
.	8AJ	.	.
4C	8GL	4e	4g
.	8AJ	.	.
4BB	4B	4d	4g
4AA	4c	8eL	4a
.	.	8f#J	.
=2	=2	=2	=2
2GG;	2d;	2g;	2b;
4r	4ry	4ry	4r
8GL	4d	4g	4b
8F#J	.	.	.
=3	=3	=3	=3
4E	4e	4g	4b
4BB	4d	8gL	4dd
.	.	8f#J	.
4C	4c	8eL	8gL
.	.	8f#J	8aJ
8BBL	[4d	4g	4b
8CJ	.	.	.
=4	=4	=4	=4
2D	8dL]	4g	2a
.	8A	.	.
.	8d	4f#	.
.	8cJ	.	.
4GG;	4B;	4d;	4g;
4G	4d	4g	4b
=5	=5	=5	=5
8DL	4d	4f#	4a
8CJ	.	.	.
4BB	4d#	[4f#	4b
4E	4B	8f#L]	4g
.	.	[8eJ	.
4AA	4c	8eL]	4a
.	.	8f#J	.
=6	=6	=6	=6
2BB;	2B;	2d#;	2f#;
4r	4ry	4ry	4r
8EL	4B	4e	4g
8DnXJ	.	.	.
=7	=7	=7	=7
8CL	4c	4e	4g
8D	.	.	.
8C	4G	4dnX	4g
8BBJ	.	.	.
4AA	4c	8eL	4a
.	.	8d#J	.
4AA#	4c#	[4e	4g
=8	=8	=8	=8
2BB	8F#	4e]	2f#
.	4B	.	.
.	.	4d#	.
.	8A	.	.
4E;	4G;	4B;	4e;
8BBL	4B	4d	4f#
8C#J	.	.	.
=9	=9	=9	=9
4D	4B	4d	4f#
4AA#	[4c#	4e	4f#
4BB	8c#L]	4d	4f#
.	8BJ	.	.
4E	8AL	4c#	4g
.	8GJ	.	.
=10	=10	=10	=10
2D;	2F#;	2d;	2a;
4r	4ry	4ry	4r
4D	4d	4f#	4a
=11	=11	=11	=11
8dL	4d	4f#	4a
8cnXJ	.	.	.
4B	4d	4g	4b
4A	4e	4g	4cc
4D	4d	4f#	4cc
=12	=12	=12	=12
2G;	2d;	2g;	2b;
4r	4ry	4ry	4r
8GL	4d	4g	4b
8F#J	.	.	.
=13	=13	=13	=13
8EL	4e	4g	4b
8D	.	.	.
8C	4d	[4g	4dd
8BBJ	.	.	.
4AA	8eL	8gL]	4cc
.	8dJ	8f#J	.
4GG	4d	4g	4b
=14	=14	=14	=14
2D;	2d;	2f#;	2a;
4r	4ry	4ry	4r
4D	8dL	[4f#	4a
.	8cJ	.	.
=15	=15	=15	=15
8D#L	[2.B	8f#L]	4b
8C#	.	8eJ	.
8D#	.	[4f#	4a
8BBJ	.	.	.
4E	.	8f#	4g
.	.	4e	.
4BB	8.BL]	.	4f#
.	.	8d#	.
.	16AJk	.	.
=16	=16	=16	=16
2.EE;	2.G;	2.B;	2.e;
==	==	==	==
*-	*-	*-	*-
!!!hum2abc: -Q ''
!!!title: @{PC#}. @{OTL@@DE}
!!!YOR1: 371 vierstimmige Choralges&auml;nge von Johann Sebastian Bach, 
!!!YOR2: 4th ed. by Alfred D&ouml;rffel (Leipzig: Breitkopf und H&auml;rtel, 
!!!YOR2: c.1875). 178 pp. Plate "V.A.10".  reprint: J.S. Bach, 371 Four-Part 
!!!YOR4: Chorales (New York: Associated Music Publishers, Inc., c.1940).
!!!SMS: B&H, 4th ed, Alfred D&ouml;rffel, c.1875, plate V.A.10
!!!EED:  Craig Stuart Sapp
!!!EEV:  2009/05/22
